!!!OTL: 637. Winters Ankunft.
!!!COM: Volksweise
!!!ODT: 1800 (vor)
!!!ARE: Europa, Mitteleuropa, Deutschland
!!!SCT: B0637
!!!TXL: @@DE
!!!YEM: Copyright 1995, estate of Helmut Schaffrath.
**kern	**text
*ICvox	*
*Ivox	*
*clefG2	*
*M2/4	*
*k[f#]	*
*G:	*
=1	=1
!LO:TX:a:t=Gemäßigt.	!
{4b	A.
4cc	a.
=2	=2
4dd	a,
8r}	.
{8cc	der
=3	=3
8b	Win-
8b	-ter
8a	der
8a	iſt
=4	=4
4g	da!
4r}	.
=5	=5
{8dd	Herbſt
8dd	und
8cc	Sommer
8cc	.
=6	=6
8b	ſind
8b	ver-
8a	-gan-
8a}	-gen.
=7	=7
{8dd	Winter
8dd	.
8cc	der
8cc	hat
=8	=8
8b	an-
8b	-ge-
8a	-fan-
8a}	-gen.
=9	=9
{4b	A.
4cc	a.
=10	=10
4dd	a,
8r}	.
{8cc	der
=11	=11
8b	Winter
8b	.
8a	iſt
8a	nun
=12	=12
4g	da!
4r}	.
==	==
!!!AGN: Kinder -, Jahreszeiten - Lied, Winter
!!!GTL: Kinderlieder
!!!ONB: ESAC (Essen Associative Code) Database: BOEHME
!!!AMT: simple duple
!!!AIN: vox
!!!EED: Helmut Schaffrath
!!!EEV: 1.0
!!Volksweise vor 1800.
!!!URL-scan: https://archive.org/details/BoehmeVtLieder1895/page/n499/mode/2up
!!!ENC: Anna Maria Matuszewska
!!!EEV: 2024/16/07
*-	*-
